X: 12058
T: Escapade In A Minor
R: reel
M: 4/4
K: Aminor
|:A,EAB cA~A2|GAAF AAEA|A,EAB cA~A2|BAGB A4|
A,EAB cA~A2|GAAF AAEA|BcAB GAFG|E~E2A z4:|
|:cA~A2 dAeA|~A2fA eA~A2|cA~A2 BAGB|EA~A2 FA~A2|
cA~A2 dAeA|~A2fA eA~A2|BcAB GAFG|E~E2A z4:|
|:ae~e2 ce~e2|fede dcBe|ae~e2 AeBe|~e2ce ~e2Be|
ae~e2 ce~e2|eEdE cE~E2|BcAB GAFG|E~E2A z4:|

